;FLAVOR:Marlin
;TIME:33433
;Filament used: 23.3529m
;Layer height: 0.2
;MINX:7.161
;MINY:2.895
;MINZ:0.2
;MAXX:132.348
;MAXY:172.533
;MAXZ:50.8
;TARGET_MACHINE.NAME:Creality Ender-3 Pro
;Generated with Cura_SteamEngine 5.7.2
M104 S200
M105
M109 S200
M82 ;absolute extrusion mode
; Ender 3 Custom Start G-code
G92 E0 ; Reset Extruder
G28 ; Home all axes
G1 Z5.0 F3000 ; Move Z Axis up a bit during heating to not damage bed
M104 S175 ; Start heating up the nozzle most of the way
M190 S60 ; Start heating the bed, wait until target temperature reached
M109 S200 ; Finish heating the nozzle
G1 Z2.0 F3000 ; Move Z Axis up little to prevent scratching of Heat Bed
G1 X0.1 Y20 Z0.3 F5000.0 ; Move to start position
G1 X0.1 Y200.0 Z0.3 F1500.0 E15 ; Draw the first line
G1 X0.4 Y200.0 Z0.3 F5000.0 ; Move to side a little
G1 X0.4 Y20 Z0.3 F1500.0 E30 ; Draw the second line
G92 E0 ; Reset Extruder
G1 Z2.0 F3000 ; Move Z Axis up little to prevent scratching of Heat Bed
G1 X5 Y20 Z0.3 F5000.0 ; Move over to prevent blob squish
G92 E0
G92 E0
G1 F1500 E-6.5
;LAYER_COUNT:254
;LAYER:0
M107
G0 F6000 X9.325 Y7.364 Z0.2
;TYPE:SKIRT
G1 F1500 E0
G1 F1200 X9.892 Y6.66 E0.03007
G1 X10.617 Y5.908 E0.06481
G1 X11.353 Y5.271 E0.09718
G1 X12.085 Y4.741 E0.12724
G1 X12.982 Y4.206 E0.16198
G1 X13.86 Y3.785 E0.19436
G1 X14.773 Y3.443 E0.22679
G1 X15.71 Y3.184 E0.25912
G1 X16.677 Y3.006 E0.29183
G1 X17.816 Y2.91 E0.32985
G1 X18.473 Y2.895 E0.3517
G1 X119.065 Y2.895 E3.69741
G1 X119.945 Y2.908 E3.72668
G1 X120.917 Y2.967 E3.75907
G1 X121.88 Y3.113 E3.79146
G1 X122.827 Y3.344 E3.82388
G1 X123.715 Y3.644 E3.85506
G1 X124.607 Y4.034 E3.88744
G1 X125.49 Y4.521 E3.92098
G1 X126.241 Y5.023 E3.95102
G1 X127.056 Y5.681 E3.98586
G1 X127.754 Y6.359 E4.01823
G1 X128.39 Y7.096 E4.0506
G1 X128.96 Y7.886 E4.083
G1 X129.422 Y8.662 E4.11304
G1 X129.876 Y9.604 E4.14782
G1 X130.205 Y10.482 E4.17901
G1 X130.474 Y11.454 E4.21255
G1 X130.651 Y12.42 E4.24522
G1 X130.746 Y13.55 E4.28293
G1 X130.761 Y14.207 E4.30479
G1 X130.761 Y75.178 E6.33269
G1 X130.798 Y77.75 E6.41825
G1 X130.907 Y80.315 E6.50364
G1 X131.082 Y82.786 E6.58603
G1 X131.33 Y85.295 E6.66989
G1 X131.648 Y87.774 E6.75301
G1 X132.079 Y90.514 E6.84527
G1 X132.182 Y91.11 E6.86538
G1 X132.297 Y92.005 E6.8954
G1 X132.333 Y92.626 E6.91608
G1 X132.348 Y93.283 E6.93794
G1 X132.347 Y160.933 E9.18799
G1 X132.336 Y161.696 E9.21337
G1 X132.279 Y162.669 E9.24579
G1 X132.134 Y163.632 E9.27818
G1 X131.905 Y164.578 E9.31055
G1 X131.594 Y165.502 E9.34298
G1 X131.202 Y166.393 E9.37535
G1 X130.734 Y167.245 E9.40769
G1 X130.212 Y168.026 E9.43893
G1 X129.579 Y168.811 E9.47247
G1 X128.954 Y169.462 E9.50249
G1 X128.165 Y170.15 E9.5373
G1 X127.405 Y170.7 E9.56851
G1 X126.538 Y171.217 E9.60208
G1 X125.66 Y171.639 E9.63448
G1 X124.749 Y171.981 E9.66685
G1 X123.81 Y172.242 E9.69926
G1 X122.844 Y172.42 E9.73193
G1 X121.693 Y172.518 E9.77035
G1 X121.018 Y172.533 E9.79281
G1 X20.313 Y172.532 E13.14227
G1 X19.58 Y172.521 E13.16665
G1 X18.608 Y172.464 E13.19904
G1 X17.645 Y172.318 E13.23143
G1 X16.699 Y172.089 E13.2638
G1 X15.775 Y171.777 E13.29624
G1 X14.885 Y171.385 E13.32859
G1 X14.062 Y170.934 E13.3598
G1 X13.223 Y170.373 E13.39337
G1 X12.519 Y169.807 E13.42341
G1 X11.766 Y169.082 E13.45818
G1 X11.129 Y168.346 E13.49056
G1 X10.599 Y167.615 E13.52059
G1 X10.063 Y166.718 E13.55534
G1 X9.641 Y165.84 E13.58774
G1 X9.299 Y164.928 E13.62014
G1 X9.039 Y163.99 E13.65251
G1 X8.861 Y163.021 E13.68528
G1 X8.762 Y161.818 E13.72543
G1 X8.749 Y161.209 E13.74569
G1 X8.749 Y100.256 E15.77299
G1 X8.712 Y97.662 E15.85928
G1 X8.603 Y95.116 E15.94404
G1 X8.428 Y92.636 E16.02673
G1 X8.183 Y90.169 E16.10918
G1 X7.854 Y87.602 E16.19526
G1 X7.44 Y84.969 E16.28391
G1 X7.322 Y84.281 E16.30713
G1 X7.209 Y83.385 E16.33716
G1 X7.174 Y82.769 E16.35769
G1 X7.161 Y82.145 E16.37844
G1 X7.162 Y14.42 E18.63099
G1 X7.173 Y13.72 E18.65427
G1 X7.231 Y12.747 E18.68669
G1 X7.377 Y11.784 E18.71909
G1 X7.607 Y10.838 E18.75147
G1 X7.92 Y9.915 E18.78388
G1 X8.312 Y9.025 E18.81623
G1 X8.782 Y8.172 E18.84862
G1 X9.325 Y7.364 E18.881
G0 F6000 X9.637 Y7.615
G1 F1200 X10.204 Y6.911 E18.91107
G1 X10.879 Y6.21 E18.94343
G1 X11.588 Y5.595 E18.97465
G1 X12.32 Y5.065 E19.00471
G1 X13.156 Y4.566 E19.03709
G1 X14.001 Y4.159 E19.06829
G1 X14.88 Y3.828 E19.09953
G1 X15.783 Y3.577 E19.1307
G1 X16.711 Y3.405 E19.16209
G1 X17.85 Y3.309 E19.20011
G1 X18.482 Y3.295 E19.22113
G1 X119.059 Y3.295 E22.56634
G1 X119.921 Y3.307 E22.59501
G1 X120.858 Y3.363 E22.62623
G1 X121.786 Y3.502 E22.65744
G1 X122.699 Y3.723 E22.68868
G1 X123.555 Y4.011 E22.71872
G1 X124.447 Y4.401 E22.7511
G1 X125.268 Y4.854 E22.78229
G1 X126.019 Y5.356 E22.81233
G1 X126.778 Y5.968 E22.84476
G1 X127.452 Y6.621 E22.87598
G1 X128.066 Y7.33 E22.90717
G1 X128.616 Y8.091 E22.9384
G1 X129.078 Y8.867 E22.96844
G1 X129.501 Y9.744 E23.00082
G1 X129.83 Y10.622 E23.03201
G1 X130.081 Y11.527 E23.06324
G1 X130.252 Y12.454 E23.0946
G1 X130.347 Y13.584 E23.13231
G1 X130.361 Y14.216 E23.15334
G1 X130.361 Y75.178 E25.18094
G1 X130.398 Y77.767 E25.26706
G1 X130.507 Y80.332 E25.35245
G1 X130.683 Y82.817 E25.43531
G1 X130.933 Y85.346 E25.51984
G1 X131.251 Y87.825 E25.60296
G1 X131.685 Y90.582 E25.69579
G1 X131.785 Y91.161 E25.71533
G1 X131.9 Y92.056 E25.74535
G1 X131.933 Y92.635 E25.76463
G1 X131.948 Y93.283 E25.78619
G1 X131.947 Y160.928 E28.03607
G1 X131.937 Y161.673 E28.06086
G1 X131.883 Y162.61 E28.09207
G1 X131.745 Y163.539 E28.12331
G1 X131.526 Y164.451 E28.15451
G1 X131.228 Y165.341 E28.18572
G1 X130.851 Y166.201 E28.21695
G1 X130.401 Y167.023 E28.24812
G1 X129.879 Y167.804 E28.27937
G1 X129.29 Y168.534 E28.31056
G1 X128.665 Y169.185 E28.34058
G1 X127.93 Y169.826 E28.37302
G1 X127.17 Y170.376 E28.40422
G1 X126.364 Y170.857 E28.43544
G1 X125.519 Y171.265 E28.46665
G1 X124.641 Y171.596 E28.49786
G1 X123.737 Y171.849 E28.52908
G1 X122.81 Y172.021 E28.56044
G1 X121.659 Y172.119 E28.59886
G1 X121.018 Y172.133 E28.62018
G1 X20.319 Y172.132 E31.96944
G1 X19.603 Y172.122 E31.99326
G1 X18.667 Y172.068 E32.02444
G1 X17.738 Y171.929 E32.05569
G1 X16.826 Y171.71 E32.08688
G1 X15.936 Y171.411 E32.11811
G1 X15.077 Y171.034 E32.14931
G1 X14.254 Y170.583 E32.18052
G1 X13.474 Y170.061 E32.21174
G1 X12.77 Y169.495 E32.24179
G1 X12.068 Y168.82 E32.27418
G1 X11.453 Y168.111 E32.30539
G1 X10.923 Y167.38 E32.33542
G1 X10.423 Y166.544 E32.36782
G1 X10.015 Y165.699 E32.39903
G1 X9.684 Y164.821 E32.43024
G1 X9.432 Y163.917 E32.46146
G1 X9.26 Y162.988 E32.49288
G1 X9.162 Y161.809 E32.53223
G1 X9.149 Y161.2 E32.55249
G1 X9.149 Y100.256 E34.57949
G1 X9.112 Y97.656 E34.66598
G1 X9.003 Y95.099 E34.7511
G1 X8.827 Y92.608 E34.83416
G1 X8.58 Y90.118 E34.91738
G1 X8.251 Y87.551 E35.00346
G1 X7.835 Y84.907 E35.09248
G1 X7.719 Y84.231 E35.11529
G1 X7.606 Y83.335 E35.14533
G1 X7.574 Y82.761 E35.16445
G1 X7.561 Y82.145 E35.18495
G1 X7.562 Y14.426 E37.43729
G1 X7.572 Y13.743 E37.46001
G1 X7.627 Y12.806 E37.49123
G1 X7.766 Y11.878 E37.52244
G1 X7.986 Y10.966 E37.55364
G1 X8.286 Y10.076 E37.58488
G1 X8.663 Y9.217 E37.61608
G1 X9.114 Y8.395 E37.64726
G1 X9.637 Y7.615 E37.6785
G0 F6000 X9.949 Y7.866
G1 F1200 X10.516 Y7.162 E37.70856
G1 X11.142 Y6.512 E37.73858
G1 X11.823 Y5.919 E37.76861
G1 X12.555 Y5.389 E37.79867
G1 X13.33 Y4.926 E37.8287
G1 X14.143 Y4.533 E37.85873
G1 X14.988 Y4.213 E37.88878
G1 X15.857 Y3.97 E37.91879
G1 X16.745 Y3.804 E37.94884
G1 X17.884 Y3.708 E37.98686
G1 X18.491 Y3.695 E38.00705
G1 X119.054 Y3.695 E41.35179
G1 X119.898 Y3.706 E41.37987
G1 X120.8 Y3.759 E41.40992
G1 X121.693 Y3.891 E41.43994
G1 X122.571 Y4.102 E41.46998
G1 X123.427 Y4.39 E41.50001
G1 X124.254 Y4.752 E41.53004
G1 X125.046 Y5.187 E41.56009
G1 X125.797 Y5.689 E41.59014
G1 X126.5 Y6.256 E41.62018
G1 X127.15 Y6.883 E41.65022
G1 X127.742 Y7.565 E41.68025
G1 X128.272 Y8.296 E41.71028
G1 X128.734 Y9.072 E41.74032
G1 X129.127 Y9.885 E41.77036
G1 X129.445 Y10.73 E41.80039
G1 X129.688 Y11.6 E41.83043
G1 X129.853 Y12.488 E41.86047
G1 X129.948 Y13.618 E41.89819
G1 X129.961 Y14.225 E41.91838
G1 X129.961 Y75.178 E43.94569
G1 X129.998 Y77.784 E44.03237
G1 X130.107 Y80.349 E44.11776
G1 X130.285 Y82.856 E44.20135
G1 X130.536 Y85.397 E44.28628
G1 X130.854 Y87.876 E44.3694
G1 X131.291 Y90.65 E44.46281
G1 X131.388 Y91.212 E44.48177
G1 X131.503 Y92.107 E44.51179
G1 X131.533 Y92.644 E44.52968
G1 X131.548 Y93.283 E44.55093
G1 X131.547 Y160.923 E46.80065
G1 X131.538 Y161.65 E46.82483
G1 X131.487 Y162.552 E46.85488
G1 X131.356 Y163.446 E46.88493
G1 X131.147 Y164.324 E46.91495
G1 X130.861 Y165.181 E46.945
G1 X130.5 Y166.009 E46.97504
G1 X130.068 Y166.801 E47.00505
G1 X129.567 Y167.553 E47.0351
G1 X129.001 Y168.257 E47.06515
G1 X128.376 Y168.908 E47.09516
G1 X127.695 Y169.502 E47.12522
G1 X126.964 Y170.033 E47.15527
G1 X126.19 Y170.497 E47.18529
G1 X125.377 Y170.891 E47.21533
G1 X124.533 Y171.211 E47.24536
G1 X123.663 Y171.456 E47.27542
G1 X122.776 Y171.622 E47.30543
G1 X121.625 Y171.72 E47.34385
G1 X121.018 Y171.733 E47.36405
G1 X20.324 Y171.732 E50.71314
G1 X19.626 Y171.723 E50.73636
G1 X18.725 Y171.672 E50.76637
G1 X17.831 Y171.54 E50.79643
G1 X16.953 Y171.331 E50.82645
G1 X16.096 Y171.044 E50.85651
G1 X15.269 Y170.683 E50.88652
G1 X14.476 Y170.25 E50.91657
G1 X13.725 Y169.749 E50.9466
G1 X13.021 Y169.183 E50.97664
G1 X12.37 Y168.557 E51.00668
G1 X11.777 Y167.876 E51.03672
G1 X11.247 Y167.145 E51.06675
G1 X10.783 Y166.37 E51.09679
G1 X10.389 Y165.557 E51.12684
G1 X10.069 Y164.713 E51.15686
G1 X9.825 Y163.843 E51.18691
G1 X9.659 Y162.955 E51.21696
G1 X9.562 Y161.8 E51.25551
G1 X9.549 Y161.191 E51.27577
G1 X9.549 Y100.256 E53.30248
G1 X9.512 Y97.65 E53.38916
G1 X9.403 Y95.082 E53.47465
G1 X9.226 Y92.58 E53.55808
G1 X8.977 Y90.067 E53.64207
G1 X8.648 Y87.5 E53.72815
G1 X8.23 Y84.845 E53.81754
G1 X8.116 Y84.181 E53.83995
G1 X8.003 Y83.285 E53.86998
G1 X7.974 Y82.752 E53.88774
G1 X7.961 Y82.145 E53.90793
G1 X7.962 Y14.431 E56.16011
G1 X7.971 Y13.766 E56.18223
G1 X8.023 Y12.864 E56.21228
G1 X8.155 Y11.971 E56.2423
G1 X8.365 Y11.093 E56.27233
G1 X8.652 Y10.236 E56.30239
G1 X9.014 Y9.409 E56.33241
G1 X9.447 Y8.617 E56.36244
G1 X9.949 Y7.866 E56.39248
G1 F1500 E49.89248
;MESH:Terrific Crift-Turing.stl
G0 F6000 X17.496 Y14.692
G0 X119.16 Y81.872
;TYPE:WALL-INNER
G1 F1500 E56.39248
G1 F1200 X119.16 Y14.492 E58.63355
G1 X18.76 Y14.492 E61.97287
G1 X18.76 Y81.872 E64.21393
G1 X119.16 Y81.872 E67.55325
G0 F6000 X119.56 Y82.272
;TYPE:WALL-OUTER
G1 F1200 X119.56 Y14.092 E69.82093
G1 X18.36 Y14.092 E73.18685
G1 X18.36 Y82.272 E75.45453
G1 X119.56 Y82.272 E78.82045
G0 F6000 X119.291 Y82.005
G0 X119.06 Y81.512
G0 X118.8 Y81.512
;TYPE:SKIN
G1 F1200 X19.12 Y81.512 E82.13583
G1 X19.12 Y14.852 E84.35295
G1 X118.8 Y14.852 E87.66832
G1 X118.8 Y81.512 E89.88544
G1 F1500 E83.38544
G0 F6000 X119.06 Y81.512
G0 X118.988 Y14.664
G0 X118.007 Y14.592
G0 X118.007 Y15.052
G1 F1500 E89.88544
G1 F1200 X118.6 Y15.645 E89.91333
G0 F6000 X118.6 Y16.211
G1 F1200 X117.441 Y15.052 E89.96785
G0 F6000 X116.876 Y15.052
G1 F1200 X118.6 Y16.777 E90.04896
G0 F6000 X118.6 Y17.343
G1 F1200 X116.31 Y15.052 E90.1567
G0 F6000 X115.744 Y15.052
G1 F1200 X118.6 Y17.908 E90.29104
G0 F6000 X118.6 Y18.474
G1 F1200 X115.179 Y15.052 E90.45197
G0 F6000 X114.613 Y15.052
G1 F1200 X118.6 Y19.04 E90.63953
G0 F6000 X118.6 Y19.605
G1 F1200 X114.047 Y15.052 E90.85369
G0 F6000 X113.481 Y15.052
G1 F1200 X118.6 Y20.171 E91.09447
G0 F6000 X118.6 Y20.737
G1 F1200 X112.916 Y15.052 E91.36186
G0 F6000 X112.35 Y15.052
G1 F1200 X118.6 Y21.302 E91.65584
G0 F6000 X118.6 Y21.868
G1 F1200 X111.784 Y15.052 E91.97644
G0 F6000 X111.219 Y15.052
G1 F1200 X118.6 Y22.434 E92.32364
G0 F6000 X118.6 Y22.999
G1 F1200 X110.653 Y15.052 E92.69745
G0 F6000 X110.087 Y15.052
G1 F1200 X118.6 Y23.565 E93.09787
G0 F6000 X118.6 Y24.131
G1 F1200 X109.522 Y15.052 E93.5249
G0 F6000 X108.956 Y15.052
G1 F1200 X118.6 Y24.696 E93.97852
G0 F6000 X118.6 Y25.262
G1 F1200 X108.39 Y15.052 E94.45877
G0 F6000 X107.825 Y15.052
G1 F1200 X118.6 Y25.828 E94.96561
G0 F6000 X118.6 Y26.393
G1 F1200 X107.259 Y15.052 E95.49906
G0 F6000 X106.693 Y15.052
G1 F1200 X118.6 Y26.959 E96.05913
G0 F6000 X118.6 Y27.525
G1 F1200 X106.128 Y15.052 E96.6458
G0 F6000 X105.562 Y15.052
G1 F1200 X118.6 Y28.091 E97.25909
G0 F6000 X118.6 Y28.656
G1 F1200 X104.996 Y15.052 E97.89898
G0 F6000 X104.43 Y15.052
G1 F1200 X118.6 Y29.222 E98.56549
G0 F6000 X118.6 Y29.788
G1 F1200 X103.865 Y15.052 E99.2586
G0 F6000 X103.299 Y15.052
G1 F1200 X118.6 Y30.353 E99.97832
G0 F6000 X118.6 Y30.919
G1 F1200 X102.733 Y15.052 E100.72465
G0 F6000 X102.168 Y15.052
G1 F1200 X118.6 Y31.485 E101.49759
G0 F6000 X118.6 Y32.05
G1 F1200 X101.602 Y15.052 E102.29712
G0 F6000 X101.036 Y15.052
G1 F1200 X118.6 Y32.616 E103.12328
G0 F6000 X118.6 Y33.182
G1 F1200 X100.471 Y15.052 E103.97603
G0 F6000 X99.905 Y15.052
G1 F1200 X118.6 Y33.747 E104.85539
G0 F6000 X118.6 Y34.313
G1 F1200 X99.339 Y15.052 E105.76137
G0 F6000 X98.774 Y15.052
G1 F1200 X118.6 Y34.879 E106.69394
G0 F6000 X118.6 Y35.444
G1 F1200 X98.208 Y15.052 E107.65312
G0 F6000 X97.642 Y15.052
G1 F1200 X118.6 Y36.01 E108.63892
G0 F6000 X118.6 Y36.576
G1 F1200 X97.077 Y15.052 E109.65132
G0 F6000 X96.511 Y15.052
G1 F1200 X118.6 Y37.141 E110.69032
G0 F6000 X118.6 Y37.707
G1 F1200 X95.945 Y15.052 E111.75594
G0 F6000 X95.38 Y15.052
G1 F1200 X118.6 Y38.273 E112.84816
G0 F6000 X118.6 Y38.839
G1 F1200 X94.814 Y15.052 E113.96701
G0 F6000 X94.248 Y15.052
G1 F1200 X118.6 Y39.404 E115.11245
G0 F6000 X118.6 Y39.97
G1 F1200 X93.682 Y15.052 E116.28452
G0 F6000 X93.117 Y15.052
G1 F1200 X118.6 Y40.536 E117.48318
G0 F6000 X118.6 Y41.101
G1 F1200 X92.551 Y15.052 E118.70845
G0 F6000 X91.985 Y15.052
G1 F1200 X118.6 Y41.667 E119.96033
G0 F6000 X118.6 Y42.233
G1 F1200 X91.42 Y15.052 E121.23882
G0 F6000 X90.854 Y15.052
G1 F1200 X118.6 Y42.798 E122.54391
G0 F6000 X118.6 Y43.364
G1 F1200 X90.288 Y15.052 E123.87562
G0 F6000 X89.723 Y15.052
G1 F1200 X118.6 Y43.93 E125.23393
G0 F6000 X118.6 Y44.495
G1 F1200 X89.157 Y15.052 E126.61884
G0 F6000 X88.591 Y15.052
G1 F1200 X118.6 Y45.061 E128.03037
G0 F6000 X118.6 Y45.627
G1 F1200 X88.026 Y15.052 E129.4685
G0 F6000 X87.46 Y15.052
G1 F1200 X118.6 Y46.192 E130.93323
G0 F6000 X118.6 Y46.758
G1 F1200 X86.894 Y15.052 E132.42458
G0 F6000 X86.329 Y15.052
G1 F1200 X118.6 Y47.324 E133.94253
G0 F6000 X118.6 Y47.89
G1 F1200 X85.763 Y15.052 E135.48711
G0 F6000 X85.197 Y15.052
G1 F1200 X118.6 Y48.455 E137.05828
G0 F6000 X118.6 Y49.021
G1 F1200 X84.631 Y15.052 E138.65608
G0 F6000 X84.066 Y15.052
G1 F1200 X118.6 Y49.587 E140.28048
G0 F6000 X118.6 Y50.152
G1 F1200 X83.5 Y15.052 E141.93147
G0 F6000 X82.934 Y15.052
G1 F1200 X118.6 Y50.718 E143.60909
G0 F6000 X118.6 Y51.284
G1 F1200 X82.369 Y15.052 E145.31331
G0 F6000 X81.803 Y15.052
G1 F1200 X118.6 Y51.849 E147.04413
G0 F6000 X118.6 Y52.415
G1 F1200 X81.237 Y15.052 E148.80157
G0 F6000 X80.672 Y15.052
G1 F1200 X118.6 Y52.981 E150.58561
G0 F6000 X118.6 Y53.546
G1 F1200 X80.106 Y15.052 E152.39625
G0 F6000 X79.54 Y15.052
G1 F1200 X118.6 Y54.112 E154.23351
G0 F6000 X118.6 Y54.678
G1 F1200 X78.975 Y15.052 E156.09738
G0 F6000 X78.409 Y15.052
G1 F1200 X118.6 Y55.243 E157.98784
G0 F6000 X118.6 Y55.809
G1 F1200 X77.843 Y15.052 E159.90492
G0 F6000 X77.278 Y15.052
G1 F1200 X118.6 Y56.375 E161.84861
G0 F6000 X118.6 Y56.94
G1 F1200 X76.712 Y15.052 E163.81889
G0 F6000 X76.146 Y15.052
G1 F1200 X118.6 Y57.506 E165.8158
G0 F6000 X118.6 Y58.072
G1 F1200 X75.581 Y15.052 E167.8393
G0 F6000 X75.015 Y15.052
G1 F1200 X118.6 Y58.638 E169.88943
G0 F6000 X118.6 Y59.203
G1 F1200 X74.449 Y15.052 E171.96616
G0 F6000 X73.883 Y15.052
G1 F1200 X118.6 Y59.769 E174.06951
